packages/design-system/src/icons/assets/btn_delete_black_20.svg

<svg width="20" height="20" viewBox="0 0 20 20" fill="none" xmlns="http://www.w3.org/2000/svg">
<path d="M15.8327 5.34199L14.6577 4.16699L9.99935 8.82533L5.34102 4.16699L4.16602 5.34199L8.82435 10.0003L4.16602 14.6587L5.34102 15.8337L9.99935 11.1753L14.6577 15.8337L15.8327 14.6587L11.1743 10.0003L15.8327 5.34199Z" fill="#121212"/>
</svg>

<svg xmlns="http://www.w3.org/2000/svg" width="20" height="20" fill="none"><path fill="#121212" d="m15.833 5.342-1.175-1.175-4.659 4.658-4.658-4.658-1.175 1.175L8.824 10 4.166 14.66l1.175 1.175 4.658-4.659 4.659 4.659 1.175-1.175L11.174 10z"/></svg>
